X:1
T:Willie Cook
C:Carl Volti
R:Strathspey
Q: 128
K:A
M:4/4
L:1/16
|:ce3 e3g a3e c3A|FB3 B3A G3B e4|ce3 e3g a3e c3A|FB3 G3e cA3 A4|
ce3 e3g a3e c3A|FB3 B3A G3B e4|ce3 e3g a3e c3A|FB3 G3e cA3 A4|
E3C A,3C EA3 A4|F3D F3B GB3 B4|E3C A,3C EA3 A3G|F3B Ge3 cA3 A4|
E3C A,3C EA3 A4|F3D F3B GB3 B3d|((3c2B2A2) ((3d2c2B2) ((3e2d2c2) ((3f2e2d2) |e3a g3b aA3 A4:|
